X: 2052
T: HUNTLY'S WEDDING MEDLEY
C:
Q: "Strathspey."
R: Strathspey.
%R: strathspey
B: James Kerr "Merry Melodies" v.2 p.8 #52
Z: 2016 John Chambers <jc:trillian.mit.edu>
M: C
L: 1/16
K: A
(ubagf) |\
ve3vAuc3uA (vFA3)uE3uD | C3EA3g a4 (bagf) |\
veA3c3uA (FA3)E3C | EFGA B3G A4 (ubagf) |\
ve3vAuc3uA (vFA3)uE3uD |
C3EA3g a4 (bagf) |\
veA3c3uA FA3E3C | EFGA B3G A4 ||\
uE4 |\
vCuE3vE3uG vAuE3vE3uD | CE3A3B c4 (dcBA) |\
CE3E3G AE3E3C |
EFGA vB3vA A4 A2E2 |\
CE3E3G AE3E3D | vC3vEuA3ug a4 (bagf) |\
(3e2c2e2 (3f2d2f2 (3g2e2g2 ua3uf | efga b3g a4 |]

%%sep 1 1 500
%%sep 1 1 500

